X:25
T:Ring Around O Rosies
%%score 1 { 2 | 3 }
L:1/8
M:6/8
I:linebreak $
K:G
V:1 treble nm="Violin"
V:2 treble nm="Piano" snm="Pno."
V:3 bass 
V:1
"G" G2 G G2 A | G3 D2 D |"G" G2 G G2 A | G3 D3 |$"G" [B,G]3 D3 |"G" [B,G]3 D3 | 
w: Ring a- round o'|ro- sies, A|pocl- et full of|po- sies!|Hop scotch,|hop schotch,|
"G" [DGB]3"D" [CFA]3 |"G" [B,DG]3 z z2 |$"G" G2 G G2 A | G3 D2 D |"G" G2 G G2 A | G3 D3 |$ 
w: All fall|down!|Ring a- round o'|ro- sies, A|pocl- et full of|po- sies!|
"G" [B,G]3 D3 |"G" [B,G]3 D3 |"G" [DGB]3"D" [CFA]3 |"G" [B,DG]3 z z2 |] 
w: Hop scotch,|hop schotch,|All fall|down!|
V:2
G2 G G2 A | G3 D2 D | G2 G G2 A | G3 D3 |$ [B,G]3 D3 | [B,G]3 D3 | [DGB]3 [CFA]3 | [B,DG]3 z z2 |$ 
G2 G G2 A | G3 D2 D | G2 G G2 A | G3 D3 |$ [B,G]3 D3 | [B,G]3 D3 | [DGB]3 [CFA]3 | [B,DG]3 z z2 |] 
V:3
G,,2 D, [G,B,]2 z | G,,2 D, [G,B,]2 z | G,,2 D, [G,B,]2 z | G,,2 D, [G,B,]2 z |$ 
G,,2 D, [G,B,]2 z | G,,2 D, [G,B,]2 z | [G,,D,]3 [D,,D,]3 | [G,,D,]3 z z2 |$ G,,2 D, [G,B,]2 z | 
G,,2 D, [G,B,]2 z | G,,2 D, [G,B,]2 z | G,,2 D, [G,B,]2 z |$ G,,2 D, [G,B,]2 z | 
G,,2 D, [G,B,]2 z | [G,,D,]3 [D,,D,]3 | [G,,D,]3 z z2 |] 



